lib/preview/nrk-logo-preview-nrk-3-with-bg.svg

<svg width="58" height="24" viewBox="0 0 58 24" fill="none" xmlns="http://www.w3.org/2000/svg">
<rect width="58" height="24" fill="#064E42"/>
<path d="M6.00427 18V6.00109H9.94146V18H6.00427ZM15.2981 7.91078L17.5623 18H13.2534L10.5498 6.00109H12.9664C13.5206 5.9939 14.0583 6.18925 14.4788 6.55039C14.8999 6.89638 15.1892 7.3767 15.2981 7.91078ZM18.1538 18V6.00109H22.091V18H18.1538ZM25.0647 10.5641C24.6405 10.5682 24.223 10.4572 23.8568 10.243C23.4955 10.0341 23.1954 9.73396 22.9865 9.3726C22.7721 9.00633 22.661 8.58876 22.6652 8.16432C22.6604 7.74246 22.7715 7.32738 22.9865 6.96443C23.1976 6.60699 23.4974 6.31009 23.8568 6.10252C24.2231 5.8885 24.6405 5.77751 25.0647 5.78138C25.4865 5.77684 25.9014 5.88793 26.2645 6.10252C26.6203 6.31191 26.9169 6.60856 27.1263 6.96443C27.3411 7.32748 27.4522 7.74249 27.4476 8.16432C27.4515 8.58873 27.3405 9.00623 27.1263 9.3726C26.9191 9.73238 26.6222 10.0323 26.2645 10.243C25.9014 10.458 25.4862 10.5691 25.0642 10.5641H25.0647ZM28.0559 18V6.00109H31.9934V18H28.0559ZM36.978 12.5582C36.9891 12.5699 37.0735 12.7079 37.2314 12.9723C37.3893 13.2367 37.5949 13.5747 37.8482 13.9863C38.1017 14.3977 38.3692 14.8343 38.6506 15.296C38.932 15.7577 39.1969 16.1944 39.4451 16.6058C39.6924 17.0172 39.974 17.4819 40.29 18H35.9641C35.6936 17.5606 35.4484 17.1635 35.2288 16.8086C35.0091 16.4537 34.7756 16.0706 34.5281 15.6594C34.2801 15.2485 34.0349 14.8485 33.7925 14.4595C33.5501 14.0704 33.3418 13.7296 33.1675 13.4371C32.9926 13.1443 32.8714 12.9471 32.8039 12.8455C32.6368 12.5934 32.5379 12.3023 32.517 12.0005C32.5337 11.7109 32.6269 11.431 32.787 11.1891C32.8546 11.0764 32.9786 10.8764 33.1588 10.5891C33.3391 10.3018 33.5503 9.96105 33.7925 9.56672C34.0347 9.17239 34.2799 8.7696 34.5281 8.35837C34.7763 7.94715 35.0098 7.56124 35.2288 7.20071C35.4488 6.84055 35.6939 6.44059 35.9641 6.00081H40.29L36.9439 11.4595C36.8404 11.6216 36.782 11.8083 36.7749 12.0005C36.786 12.2023 36.8565 12.3963 36.9774 12.5582H36.978Z" fill="white"/>
<path d="M51.9745 13.504C51.8574 13.1666 51.6736 12.8563 51.434 12.5915C51.1849 12.3237 50.8827 12.1107 50.5466 11.9663C50.1617 11.8008 49.7547 11.6926 49.3384 11.6453V11.5946C49.8438 11.4339 50.3141 11.1787 50.7243 10.8426C51.0901 10.5425 51.3917 10.1719 51.6111 9.75274C51.819 9.35067 51.9264 8.90424 51.9241 8.45164C51.9318 8.06749 51.8447 7.68735 51.6706 7.34486C51.4925 7.01348 51.2377 6.72957 50.9274 6.51688C50.5664 6.27123 50.1621 6.09634 49.7358 6.0015C49.212 5.88271 48.6761 5.82601 48.139 5.83254C47.7857 5.83364 47.4328 5.85905 47.083 5.90858C46.721 5.95858 46.3627 6.03195 46.0102 6.12824C45.671 6.22008 45.3424 6.34753 45.0299 6.50844L45.2664 7.84334C45.5143 7.74195 45.7537 7.65465 45.9849 7.58143C46.216 7.50821 46.4384 7.44906 46.6521 7.404C46.8661 7.35932 47.0746 7.32551 47.2775 7.30261C47.4739 7.28044 47.6713 7.26915 47.8689 7.26881C48.2265 7.26291 48.5837 7.29693 48.9337 7.37021C49.1873 7.4212 49.4284 7.52169 49.6431 7.66591C49.8184 7.7893 49.9559 7.95895 50.0403 8.15594C50.1297 8.37867 50.1729 8.61724 50.1673 8.85718C50.1721 9.18677 50.0936 9.51223 49.9391 9.80343C49.7821 10.0906 49.5627 10.3388 49.297 10.53C48.9976 10.7441 48.6631 10.9043 48.3085 11.0032C47.8964 11.1199 47.4696 11.1768 47.0412 11.1721H46.7199L46.5174 12.4901H47.0581C47.5568 12.4834 48.0548 12.5258 48.5451 12.6169C48.9121 12.6825 49.2641 12.8141 49.584 13.0055C49.8458 13.1649 50.0591 13.3928 50.201 13.6645C50.3421 13.9566 50.4115 14.2781 50.4035 14.6023C50.4125 14.9303 50.349 15.2563 50.2177 15.557C50.0922 15.8239 49.8965 16.0517 49.6516 16.216C49.3589 16.4069 49.0319 16.5389 48.6887 16.6047C48.2355 16.6953 47.7738 16.7378 47.3116 16.7314C47.1426 16.7314 46.9763 16.7258 46.8128 16.7145C46.6493 16.7032 46.4775 16.6863 46.2975 16.6638C46.1174 16.6413 45.9288 16.6103 45.7317 16.5709C45.5346 16.5314 45.3177 16.4836 45.0811 16.4272L44.8615 17.8635C45.1089 17.9086 45.3483 17.9508 45.5796 17.9902C45.8109 18.0297 46.0389 18.0635 46.2637 18.0916C46.489 18.1194 46.7087 18.1391 46.923 18.1508C47.1372 18.1624 47.3456 18.168 47.5482 18.1677C48.0866 18.1718 48.6242 18.1237 49.1534 18.024C49.6031 17.9401 50.0384 17.7922 50.4461 17.5847C50.802 17.4041 51.1224 17.1608 51.392 16.8666C51.6462 16.5841 51.8415 16.2538 51.9665 15.895C52.1008 15.5007 52.1666 15.0864 52.1612 14.6699C52.1661 14.2734 52.1029 13.8791 51.9745 13.504Z" fill="#BEF7ED"/>
</svg>

<svg xmlns="http://www.w3.org/2000/svg" viewBox="0 0 58 24"><path fill="#064E42" d="M0 0h58v24H0z"/><path fill="#fff" d="M6.004 18V6.001h3.937V18H6.004Zm9.294-10.09L17.562 18h-4.309L10.55 6.001h2.416a2.276 2.276 0 0 1 1.513.55c.42.345.71.826.82 1.36ZM18.154 18V6.001h3.937V18h-3.937Zm6.91-7.436a2.383 2.383 0 0 1-2.4-2.4 2.303 2.303 0 0 1 .323-1.2 2.411 2.411 0 0 1 3.278-.861c.355.209.652.506.861.861.215.363.326.778.322 1.2a2.4 2.4 0 0 1-1.183 2.079 2.302 2.302 0 0 1-1.2.321ZM28.057 18V6.001h3.937V18h-3.937Zm8.922-5.442c.011.012.096.15.253.414.158.265.364.603.617 1.014a315.936 315.936 0 0 1 1.597 2.62c.247.411.529.876.845 1.394h-4.326c-.27-.44-.516-.837-.735-1.191-.22-.355-.453-.738-.7-1.15-.249-.41-.494-.81-.737-1.2-.242-.389-.45-.73-.625-1.022-.174-.293-.296-.49-.363-.591a1.748 1.748 0 0 1-.287-.845c.017-.29.11-.57.27-.812.068-.113.192-.313.372-.6s.391-.628.633-1.022c.243-.395.488-.797.736-1.209l.7-1.157.736-1.2h4.326l-3.346 5.458a1.08 1.08 0 0 0-.17.542c.012.201.082.395.203.557h.001Z"/><path fill="#BEF7ED" d="M51.974 13.504a2.66 2.66 0 0 0-.54-.912 2.63 2.63 0 0 0-.887-.626 4.282 4.282 0 0 0-1.209-.32v-.051a4.19 4.19 0 0 0 1.386-.752c.366-.3.668-.671.887-1.09.208-.402.315-.849.313-1.301a2.34 2.34 0 0 0-.253-1.107 2.356 2.356 0 0 0-.744-.828A3.45 3.45 0 0 0 49.736 6a6.843 6.843 0 0 0-1.597-.168 7.704 7.704 0 0 0-1.056.076c-.362.05-.72.123-1.073.22a4.99 4.99 0 0 0-.98.38l.236 1.334c.248-.101.488-.188.719-.262a6.786 6.786 0 0 1 1.293-.279c.196-.022.393-.033.59-.033a4.81 4.81 0 0 1 1.066.101c.253.051.494.152.71.296.174.123.312.293.396.49.09.223.133.461.127.701.005.33-.073.655-.228.946a2.189 2.189 0 0 1-.642.727c-.3.214-.634.374-.988.473a4.471 4.471 0 0 1-1.268.17h-.321l-.203 1.317h.541c.499-.007.997.036 1.487.127.367.065.72.197 1.039.388.262.16.475.388.617.66.141.292.21.613.203.937.008.328-.055.654-.186.955a1.628 1.628 0 0 1-.566.659 2.69 2.69 0 0 1-.963.389c-.453.09-.915.133-1.377.126-.17 0-.336-.005-.5-.017a7.869 7.869 0 0 1-1.081-.144c-.196-.039-.413-.086-.65-.143l-.22 1.436c.248.046.487.088.719.127.23.04.459.074.684.102a9.705 9.705 0 0 0 1.284.076 8.328 8.328 0 0 0 1.605-.144c.45-.084.885-.232 1.293-.44.356-.18.676-.423.946-.717.254-.283.45-.613.575-.972.134-.394.2-.809.194-1.225a3.468 3.468 0 0 0-.187-1.166Z"/></svg>
